modules/stroke-7/icons/lintern.svg

<?xml version="1.0" encoding="utf-8"?>
<!-- Generated by IcoMoon.io -->
<!DOCTYPE svg PUBLIC "-//W3C//DTD SVG 1.1//EN" "http://www.w3.org/Graphics/SVG/1.1/DTD/svg11.dtd">
<svg version="1.1" xmlns="http://www.w3.org/2000/svg" xmlns:xlink="http://www.w3.org/1999/xlink" width="32" height="32" viewBox="0 0 32 32">
<g id="icomoon-ignore">
</g>
<path d="M8.536 0.006v3.199l3.732 6.397v22.391h7.464v-22.391l3.732-6.397v-3.199h-14.928zM9.602 1.073h12.795v1.844l-0.168 0.288h-12.459l-0.168-0.288v-1.844zM13.334 30.927v-2.137h5.331v2.137h-5.331zM18.811 9.065l-0.145 0.249v18.41h-5.331v-18.41l-2.942-5.043h11.214l-2.796 4.794z" fill="#000000"></path>
<path d="M16 14.934c-0.883 0-1.599 0.716-1.599 1.599v2.135c0 0.883 0.716 1.599 1.599 1.599s1.599-0.717 1.599-1.599v-2.135c0-0.883-0.716-1.599-1.599-1.599zM16.533 18.668c0 0.294-0.239 0.533-0.533 0.533s-0.533-0.239-0.533-0.533v-2.135c0-0.294 0.239-0.533 0.533-0.533s0.533 0.239 0.533 0.533v2.135z" fill="#000000"></path>
</svg>

<svg xmlns="http://www.w3.org/2000/svg" width="32" height="32" viewBox="0 0 32 32"><path d="M8.536.006v3.199l3.732 6.397v22.391h7.464V9.602l3.732-6.397V.006H8.536zm1.066 1.067h12.795v1.844l-.168.288H9.77l-.168-.288V1.073zm3.732 29.854V28.79h5.331v2.137h-5.331zm5.477-21.862l-.145.249v18.41h-5.331V9.314l-2.942-5.043h11.214l-2.796 4.794z"/><path d="M16 14.934a1.6 1.6 0 0 0-1.599 1.599v2.135a1.6 1.6 0 0 0 3.198 0v-2.135A1.6 1.6 0 0 0 16 14.934zm.533 3.734a.533.533 0 0 1-1.066 0v-2.135a.533.533 0 0 1 1.066 0v2.135z"/></svg>
